!!!!SEGMENT: pl-wn--mus-iii-161-977--002_zelenski-wladyslaw--humoreske-und-gavotte-op-18-gavotte.krn
!!!cenid: 18xx:3687
!!!COM: Żeleński, Władysław
!!!COM-rismID: pe41024455
!!!CDT:
!!!CNT:
!!!GTL: Humoreske und gavotte op. 18
!!!OTL: Gavotte
!!!PDT:
!!!AGN:
!!!SMS-siglum: PL-Wn
!!!SMS-shelfmark: Mus.III.161.977
!!!SMS-shelfwork: 002 G
!!!SMS-variant:
!!!SMS-altvar:
!!!NIFC-rismSourceID:
!!!NIFC-islandoraID:
!!!URL-pdf-islandora:
!!!URL-scan: https://polona.pl/item/humoreske-und-gavotte-zwei-stucke-fur-clavier-zu-zwei-handen-op-18,Mzg2MTYzNDQ/0/#info:metadata @EN{Scan on Polona} @PL{Skany w portalu Polona}
!!!ONB-nifc:
!!!AIN: 2 piano
!!!key:
**kern	**kern	**dynam
*part2	*part1	*part1
*staff2	*staff1	*
*I"Pianoforte	*I"Pianoforte	*
*I'pf	*I'pf	*
*ICklav	*ICklav	*
*Ipiano	*Ipiano	*
*clefF4	*clefG2	*
*k[b-e-a-]	*k[b-e-a-]	*
*c:	*c:	*
*M2/4	*M2/4	*
=1	=1	=1
!	!LO:TX:a:B:t=Allegro	!
!	!LO:TX:a:B:t=Allegro non tanto.	!
4CC/ 4C	(8.g\L 8.gg	f
.	16f#X\Jk 16ff#X	.
4DD/ 4D	8g/L) 8gg	.
.	8Bn'/J 8bn	.
=2	=2	=2
4EE-/ 4E-	8c'/L 8cc	.
.	8d'/ 8dd	.
[4CC/ [4C	8f'/ 8ff	.
.	8e-'/J 8ee-	.
=3	=3	=3
8CC/L] 8C]	4d/ 4dd	.
8DD/ 8D	.	.
8EE-/ 8E-	4c/ 4cc	.
8CC/J 8C	.	.
=4	=4	=4
4BBB-/ 4BB-	8g\L 8gg	.
.	8a-\J 8aa-	.
8AAA-/L 8AA-	4cc\ 4ccc	.
8GGG/J 8GG	.	.
=5	=5	=5
4FFF/ 4FF	(8b-\L 8bb-	.
.	8a-\) 8aa-	.
[4AAA-/ [4AA-	8g\ 8gg	.
.	8f\J 8ff	.
=6	=6	=6
8AAA-/L] 8AA-]	([2g\ [2gg	.
8GGG/ 8GG	.	.
8AAAn/ 8AAn	.	.
8BBBn/J 8BBn	.	.
=7	=7	=7
4CC/ 4C	(8.g\L] 8.gg]	.
.	16f#X\Jk 16ff#X	.
4FF/ 4F	8g/L)) 8gg	.
.	8Bn'/J 8bn	.
=8	=8	=8
8EE-/L 8E-	8c'\L 8cc	.
8BBBn/J 8BBn	8d'\ 8dd	.
[4CC/ [4C	8f'\ 8ff	.
.	8e-'\J 8ee-	.
!!LO:LB:g=original	!	!
=9	=9	=9
8CC/L] 8C]	4d/ 4dd	.
8DD/J 8D	.	.
[4EE-/ [4E-	4c/ 4cc	.
=10	=10	=10
4EE-/] 4E-]	8g\L 8gg	.
.	8a-\J 8aa-	.
8DD/L 8D	4cc\ 4ccc	.
8CC/J 8C	.	.
=11	=11	=11
(8BBB-\L 8BB-	(8b-\L 8bb-	>
8AA-\) 8A-	8a-\) 8aa-	.
8GG'\ 8G	8g\ 8gg	.
8FF'\J 8F	8f\J 8ff	.
=12	=12	=12
8EE-'/L 8E-	4g\ 4gg	.
8CC'/ 8C	.	.
8BBB-'/ 8BB-	4a-\ 4aa-	]]
8AAA-'/J 8AA-	.	.
=13	=13	=13
8GGG\L 8GG	4b-\ 4bb-	p
8D\ 8d	.	.
8C\ 8c	4e-\ 4ee-	.
8BB-\J 8B-	.	.
=14	=14	=14
8AA-/L 8A-	4f\ 4ff	.
8GG/ 8G	.	.
8FF/ 8F	4g\ 4gg	.
8EE-/J 8E-	.	.
=15	=15	=15
8DD\L 8D	4a-\ 4aa-	.
8C\ 8c	.	.
8BB-\ 8B-	4d/ 4dd	.
8AA-\J 8A-	.	.
=16	=16	=16
8GG/L 8G	4e-/ 4ee-	.
8FF/ 8F	.	.
8EE-/ 8E-	4f/ 4ff	.
8DD/J 8D	.	.
=17	=17	=17
8CC\L 8C	4g\ 4gg	.
8BB-\ 8B-	.	.
8AA-\ 8A-	4c/ 4cc	.
8GG\J 8G	.	.
!!LO:LB:g=original	!	!
=18	=18	=18
8FF/L 8F	4d/ 4dd	.
8EE-/ 8E-	.	.
8DD/ 8D	4e-/ 4ee-	.
8CC/J 8C	.	.
=19	=19	=19
*	*^	*
!	!LO:TX:b:i:t=ritard.	!	!
8BBBn/L 8BBn	8ff/L	2f\	>
8CC/ 8C	8e-/	.	.
8BBB-X/ 8BB-X	8d/	.	.
8AAA-/J 8AA-	8c/J	.	.
*	*v	*v	*
=20	=20	=20
2GGG;/ 2GG	2Bn;/ 2g	]]
=21:|!|:	=21:|!|:	=21:|!|:
*	*^	*
!	!LO:TX:b:B:t=a tempo	!	!
4BBB-/ 4BB-	[2ff/	(8.dd-X\L	f
.	.	16cc\K	.
4AAAn/ 4AAn	.	8dd-\)	.
.	.	8f'\J	.
=22	=22	=22	=22
4BBB-/ 4BB-	4ff/]	8g\L	.
.	.	8a-\	.
[4DD-X/ [4D-X	4ff/	8cc\	.
.	.	8b-\J	.
=23	=23	=23	=23
8DD-/L] 8D-]	4een/	(>8a-\L	.
8CC/ 8C	.	8b-\)	.
8DDn/ 8Dn	4cc/	8a-\	.
8EEn/J 8En	.	8g\J	.
=24	=24	=24	=24
4FF/ 4F	[2cc/	(8.a-\L	.
.	.	16g\K	.
4EEn/ 4En	.	8a-\)	.
.	.	8c\J	.
=25	=25	=25	=25
4FF/ 4F	4cc/]	8d\L	.
.	.	8e-\	.
[4AA-\ [4A-	4cc/	8g\	.
.	.	8f\J	.
=26	=26	=26	=26
8AA-\L] 8A-]	4bn/	(>8e-\L	.
8GG\ 8G	.	8f\)	.
8AAn\ 8An	[4g/	8e-\	.
8BBn\J 8Bn	.	8d\J	.
*	*v	*v	*
!!LO:LB:g=original	!	!
=27	=27	=27
8C\ 8c	8e-/L 8g]	.
8r	(16c/L 16e-	p
.	16d/J 16f	.
(4GG/	8e-/) 8g	.
.	(8d/J 8f	.
=28	=28	=28
4AA-/	8c/L) 8e-	.
.	8c'/J 8e-	.
4AAn/	(4g^>/ 4ee-	.
=29	=29	=29
8BB-/L)	8f/L) 8dd	.
8C'/	8a-'/ 8cc	.
8C#X'/	8g'/ 8b-	.
8D'/J	8f'/J 8a-	.
=30	=30	=30
8E-\	8e-'/ 8g	.
8r	(16e-/LL 16g	.
.	16f/J 16a-	.
(4BBn/	8g/) 8b-	.
.	(8f/J 8a-	.
=31	=31	=31
4C/	8e-/L) 8g	.
.	8e-/J 8g	.
(4C#X/)	(4b-^\ 4gg	.
=32	=32	=32
8D\L)	8an\L) 8ff#X	.
8E-'\	8cc'\ 8ee-	.
8En'\	8b-'\ 8dd	.
8F#X'\J	8a'\J 8cc	.
=33	=33	=33
*	*^	*
8G\	(8g\L 8b-	4ryy	.
8r	16g\L 16b-	.	pp
.	16a-X\JJ 16cc	.	.
8G'\L	[4dd-X/)	8b-\L	.
8F'\J	.	8a-'\J	.
=34	=34	=34	=34
8E-'\L	8dd-/L]	8g\L	.
8F'\	8b-'/	8a-\	.
8E-'\	8cc'/	8g\	.
8D-X'\J	8dd-X'/J	8f\J	.
!!LO:LB:g=original	!	!	!
=35	=35	=35	=35
8C/	8e-\L 8ee-	4ryy	.
8r	(>16a-\L 16cc	.	.
.	16b-\JJ 16dd-X	.	.
8A-'\L	[4ee-/)	8cc\L	.
8G'\J	.	8b-'\J	.
=36	=36	=36	=36
8F'\L	8ee-/L]	8a-\L	.
8G'\	8cc'/	8b-\	.
8F'\	8dd-X'/	8a-\	.
8E-'\J	8ee-'/J	8g\J	.
=37	=37	=37	=37
8D-X'\	8f\L 8ff	4ryy	.
8r	16b-\L (16dd-X	.	.
.	16cc\JJ 16ee-	.	.
8B-'\L	[4ff/)	8dd-\L	.
8A-'\J	.	8cc'\J	.
=38	=38	=38	=38
8G'\L	8ff/L]	8b-\L	.
8A-'\	8dd-X'/	8cc\	.
8G'\	8ee-'/	8b-\	.
8F'\J	8ff'/J	8a-\J	.
*	*v	*v	*
=39	=39	=39
8E-\	8g'\L 8gg	.
8r	8dd-X'\ 8bb-X	.
[4EEn/	8cc'\ 8aa-	.
.	8b-'\J 8gg	.
=40	=40	=40
4EE/]	8cc'\L 8aa-	.
.	8b-'\ 8gg	.
[4FF/	8a-'\ 8ff	.
.	8g'\J 8een	.
=41	=41	=41
4FF/]	8a-'\L 8ff	.
.	8g'\ 8ee-X	.
4AA-/	8f'\ 8dd	.
.	8f#X'\J 8cc	.
=42	=42	=42
(8.GG/L 8.G	8g/ 8bn	ff
.	8r	.
16FF#X/Jk 16F#X	.	.
8GG/L) 8G	4r	.
8BBBn/J 8BBn	.	.
!!LO:LB:g=original	!	!
=43	=43	=43
8CC/L 8C	(8.g\L 8.gg	ff
8DD/ 8D	.	.
.	16f#X\Jk 16ff#X	.
8FFn/ 8Fn	8g/L) 8gg	.
8EE-/J 8E-	8Bn/J 8bn	.
=44	=44	=44
4DD/ 4D	8c/L 8cc	.
.	8d/ 8dd	.
4CC/ 4C	8f/ 8ff	.
.	8e-/J 8ee-	.
=45	=45	=45
8GG'\L 8G	4d/ 4dd	.
8AA-'\J 8A-	.	.
4C\ 4c	4c/ 4cc	.
=46	=46	=46
(8BB-\L 8B-	8g'\L 8gg	.
8AA-\) 8A-	8a-'\J 8aa-	.
8GG\ 8G	4cc\ 4ccc	.
8FF\J 8F	.	.
=47	=47	=47
4GG\ 4G	(8b-\L 8bb-	.
.	8a-\) 8aa-	.
4AA-\ 4A-	8g\ 8gg	.
.	8f\J 8ff	.
=48	=48	=48
8BB-\L 8B-	4g\ 4gg	>
8AA-\ 8A-	.	.
8GG\ 8G	4a-\ 4aa-	]]
8FF\J 8F	.	.
=49	=49	=49
8EE-\L 8E-	4b-\ 4bb-	p
8D\ 8d	.	.
8C\ 8c	4e-/ 4ee-	.
8BB-\J 8B-	.	.
=50	=50	=50
8AA-/L 8A-	4f\ 4ff	.
8GG/ 8G	.	.
8FF/ 8F	4g\ 4gg	.
8EE-/J 8E-	.	.
=51	=51	=51
8DD\L 8D	4a-\ 4aa-	.
8C\ 8c	.	.
8BB-\ 8B-	4d/ 4dd	.
8AA-\J 8A-	.	.
!!LO:LB:g=original	!	!
=52	=52	=52
8GG/L 8G	4e-/ 4ee-	.
8FF/ 8F	.	.
8EE-/ 8E-	4f/ 4ff	.
8DD/J 8D	.	.
=53	=53	=53
!	!	!LO:DY:t=cresc.
8CC\L 8C	4g\ 4gg	<
8BB-\ 8B-	.	.
!	!LO:TX:b:i:t=molto	!
8AA-\ 8A-	4c/ 4cc	.
8GG\J 8G	.	.
=54	=54	=54
8FF/L 8F	4d/ 4dd	.
8EE-/ 8E-	.	.
8DD/ 8D	4e-/ 4ee-	.
8CC/J 8C	.	.
=55	=55	=55
*	*^	*
8FF\L 8F	8dd/	2d\	f
!	!LO:TX:b:i:t=ritard.	!	!
8AA-\ 8A-	4c/	.	.
8GG\ 8G	.	.	.
8GGG\J 8GG	8Bn/	.	.
*	*v	*v	*
=56	=56	=56
!LO:TX:b:i:t=Fine.	!	!
2CC;/ 2C	2c;/	.
*clefG2	*	*
=57:|!	=57:|!	=57:|!
*k[]	*k[]	*
.	16qqee/LL	pp <
.	16qqgg/JJ	.
(8g/L	(4ee\	.
8c/	.	.
.	16qqdd/LL	.
.	16qqgg/JJ	.
8f/	4dd\	.
8c/J	.	.
=58	=58	=58
.	16qqcc/LL	.
.	16qqgg/JJ	.
8e/L	4cc\	.
8c/	.	.
8d/	4b\)	.
8e/J)	.	.
=59	=59	=59
8f/L	[4a/	.
8c/	.	.
8f/	16a/LL]	.
.	16b/	.
8f#X/J	16cc/	.
.	16dd/JJ	.
!!LO:LB:g=original	!	!
=60	=60	=60
8g/L	16b\LL	.
.	16cc\	.
8c/	16dd\	.
.	16ee\JJ	.
8a/	16dd\LL	.
.	16ee\	.
8b/J	16ff\	.
.	16gg\JJ	.
=61	=61	=61
.	16qqee/LL	<
.	16qqgg/JJ	.
8cc/L	(4ee\	.
8c/	.	.
.	16qqee-X/LL	.
.	16qqgg/JJ	.
8cc/	4ee-\	.
8c/J	.	.
=62	=62	=62
.	16qqdd/LL	.
.	16qqgg/JJ	.
8b/L	4dd\	.
8c/J	.	.
8b-X/L	4dd-X^\) 4aa	[[
8c/J	.	.
=63	=63	=63
*	*^	*
8a/L	[4ff/	[4cc\	>
8c/	.	.	.
8a/	16cc\LL] 16ff]	4ryy	.
.	16ccc\	.	.
8c/J	16bb\	.	.
.	16aa\JJ	.	.
*	*v	*v	*
=64	=64	=64
8a/L	16gg\LL	.
.	16ff\	.
8c/	16ee\	.
.	16dd\JJ	.
8g/	16cc#X\LL	.
.	16bb-X\	.
8c/J	16gg\	.
.	16ee\JJ	]]
=65	=65	=65
*	*^	*
8f#X/L 8a	[4aa/	2dd\	.
8c/	.	.	.
8f#/ 8a	16aa/LL]	.	.
.	16bbn/	.	.
8c/J	16ccc/	.	.
.	16ddd/JJ	.	.
=66	=66	=66	=66
8g#X/L 8b	16bb/LL	2ee\	.
.	16ccc/	.	.
8c/	16ddd/	.	.
.	16eee/JJ	.	.
8g#/ 8b	16bb/LL	.	.
.	16ccc/	.	.
8c/J	16ddd/	.	.
.	16eee/JJ	.	.
!!LO:LB:g=original	!	!	!
=67	=67	=67	=67
8f#X/L 8a	[4aa^/	[2dd\	.
8c/	.	.	.
8f#/ 8a	16aa/LL]	.	.
.	16bbn/	.	.
8c/J	16ccc/	.	.
.	16ddd/JJ	.	.
=68	=68	=68	=68
*^	*	*	*
8g/L 8b-X	4ryy	16gg/LL	4dd\]	.
.	.	16aa/	.	.
!LO:TX:a:i:t=ben marcato	!	!	!	!
8c/J	.	16bb-X/	.	.
.	.	16ccc/JJ	.	.
4dd-X/	8dd-\L	16ff/LL	4ryy	.
.	.	16gg/	.	.
.	8c\J	16aa/	.	.
.	.	16bb-/JJ	.	.
*	*	*v	*v	*
=69	=69	=69	=69
4cc/	8cc\L	16ee\LL	.
.	.	16ff\	.
.	8c\J	16gg\	.
.	.	16aa\JJ	.
4b-X/	8b-\L	16dd\LL	.
.	.	16ee\	.
.	8c\J	16ff\	.
.	.	16gg\JJ	.
=70	=70	=70	=70
8a/L	4a\	16cc\LL	.
.	.	16ccc\	.
8c/J	.	16bb\	.
.	.	16aa\JJ	.
8a/L	4ryy	16gg\LL	.
.	.	16ff\	.
8c/J	.	16ee\	.
.	.	16dd\JJ	.
*v	*v	*	*
=71	=71	=71
8g/L	16cc\LL	.
.	16b\	.
8c/	16a\	.
.	16g\JJ	.
8f/	16a/LL	.
.	16g/	.
8c/J	16a/	.
.	16b/JJ	.
=72	=72	=72
8e/L	4cc\	.
8c/	.	.
8e/	4r	.
8c/J	.	.
=73:|!|:	=73:|!|:	=73:|!|:
.	(16qqb/LL	.
.	16qqdd/JJ	.
8d/L	4b\	.
8G/	.	.
.	16qqa/LL	.
.	16qqdd/JJ	.
8c/	4a/	.
8G/J	.	.
!!LO:LB:g=original	!	!
=74	=74	=74
.	16qqg/LL	.
.	16qqdd/JJ	.
8B/L	4g/	.
8G/	.	.
8A/	4fn^/	.
8B/J	.	.
=75	=75	=75
8c/L	[4e/)	.
8G/	.	.
8c/	16e/LL]	.
.	16f#X/	.
8c#X/J	16g/	.
.	16a/JJ	.
=76	=76	=76
8d/L	16f#X/LL	.
.	16g/	.
8G/	16a/	.
.	16b/JJ	.
8e/	16a/LL	.
.	16b/	.
8f#X/J	16cc/	.
.	16dd/JJ	.
=77	=77	=77
.	16qqb/LL	<
.	16qqdd/JJ	.
8g/L	(4b\	.
8G/	.	.
.	16qqb-X/LL	.
.	16qqee/JJ	.
8c#X/	4b-\	.
8G/J	.	.
=78	=78	=78
.	16qqa/LL	.
.	16qqff/JJ	.
8d/L	4a/	.
8G/	.	.
8e/	4cc#X\) 4bb-X	[[
8G/J	.	.
=79	=79	=79
8f/L	[4dd\ [4aa	>
8G/	.	.
8f/J	16dd\LL] 16aa]	.
.	16ff\	.
8r	16ee\	.
.	16dd\JJ	.
=80	=80	=80
2r	16cc/LL	.
.	16b/	.
.	16a/	.
.	16g/JJ	.
.	16a/LL	.
.	16b/	]
.	16cc/	.
.	16dd/JJ	.
!!LO:LB:g=original	!	!
=81	=81	=81
.	(16qqee/LL	.
.	16qqgg/JJ	.
8g/L	4ee\	.
8c/	.	.
.	16qqdd/LL	.
.	16qqgg/JJ	.
8f/	4dd\)	.
8c/J	.	.
=82	=82	=82
.	(16qqcc/LL	.
.	16qqgg/JJ	.
8e/L	4cc\	.
8c/	.	.
8d/	4b-X^\)	.
8e/J	.	.
=83	=83	=83
8f/L	[4a/	.
8c/	.	.
8f/	16a\LL]	.
.	16b\	.
8f#X/J	16cc\	.
.	16dd\JJ	.
=84	=84	=84
8g/L	16b\LL	.
.	16cc\	.
8c/	16dd\	.
.	16ee\JJ	.
8b-X/	16dd\LL	.
.	16ee\	.
8c/J	16ff\	.
.	16gg\JJ	.
=85	=85	=85
*	*^	*
8f#X/L 8a	([4aa/	2dd\	.
8c/	.	.	.
8f#/ 8a	16aa/LL]	.	<
.	16bb/	.	.
8c/J	16ccc/	.	.
.	16ddd/JJ	.	.
=86	=86	=86	=86
8g#X/L 8b	16bb/LL	[4ee\	.
.	16ccc/	.	.
8c/	16ddd/	.	.
.	16eee/JJ	.	[
8a/ 8cc	16ee/LL] 16ddd	4ryy	>
.	16ccc/	.	.
8c/J	16bb/	.	.
.	16aa/JJ)	.	]
!!LO:LB:g=original	!	!	!
=87	=87	=87	=87
8d/L 8f	([4ff/	2b-X\	.
8c/	.	.	.
8d/ 8f	16ff/LL]	.	<
.	16gg/	.	.
8c/J	16aa/	.	.
.	16bb-X/JJ	.	.
=88	=88	=88	=88
8e/L 8g	16gg/LL	[4cc\	.
.	16aa/	.	.
8c/	16bb-X/	.	.
.	16ccc/JJ	.	[
8f/ 8a	16cc/LL] 16bb-	4ryy	>
.	16aa/	.	.
8c/J	16gg/	.	.
.	16ff/JJ)	.	]
*	*v	*v	*
=89	=89	=89
8a/L	16ee\LL	.
.	16ff\	.
8c/	16aa\	.
.	16ff\JJ	.
8g/	16dd#X\LL	.
.	16ee\	.
8c/J	16gg\	.
.	16ee\JJ	.
=90	=90	=90
8f/L	16cc#X\LL	.
.	16dd\	.
8c/	16ff\	.
.	16dd\JJ	.
8e/	16b\LL	.
.	16ccn\	.
8c/J	16ee\	.
.	16cc\JJ	.
=91	=91	=91
8d/L	16a#X\LL	.
.	16b\	.
8c/	16dd\	.
.	16b\JJ	.
8f/	16an/LL	.
.	16g/	.
8c/J	16a/	.
.	16b/JJ	.
=92	=92	=92
8e/L	4cc\	.
8c/	.	.
8e/	4r	.
!LO:TX:b:i:t=Da Capo al Fine.	!	!
8c/J	.	.
=:|!	=:|!	=:|!
*-	*-	*-
!!!system-decoration: {(s1,s2)}
!!!RDF**kern: > = above
!!!RDF**kern: < = below
!!!ENC: Filip Voros
!!!END: 2022-03-13
!!!ENC: Jan Barakat
!!!END: 2022-03-20
